X:1
T: Hot Punch
C:
R:Jig
Q:180
K:A
M:6/8
L:1/16
ed|c4A2 A2G2A2|F4A2 E4A2|c4A2 c2e2c2|A6 A3Bc2|d4B2 B2^A2B2|F4B2 B4A2|G4E2 G2B2G2|E6 E4d2|
c4A2 A2G2A2|F4A2 E4A2|c4A2 c2e2c2|A6 A2B2c2|e4c2 d4B2|c4A2 B4A2|G2B2G2 E2F2G2|A6 A2e2d2|
c4e2 e2f2e2|c4e2 e2f2e2|c4A2 c2e2c2|A6 A2B2c2|d4f2 f2a2f2|d4f2 f2a2f2|d4B2 d2f2d2|B6 B4d2|
c4e2 e2f2e2|c4e2 e2f2e2|c4A2 c2e2c2|A6 A2c2e2|f2d2f2 e2c2e2|d2B2d2 c2A2c2|G2B2A2 G2F2G2|A6 A6||
